website/src/static/table/nothingfound.svg

<svg width="144" height="80" viewBox="0 0 144 80" fill="none" xmlns="http://www.w3.org/2000/svg">
<rect width="144" height="80" fill="white"/>
<rect x="32" y="51" width="80" height="8" rx="4" fill="#E0E1E9" fill-opacity="0.8"/>
<rect x="48" y="67" width="48" height="8" rx="4" fill="#E0E1E9" fill-opacity="0.8"/>
<path fill-rule="evenodd" clip-rule="evenodd" d="M65.5061 37.5718C65.5779 37.5706 65.6458 37.6045 65.6879 37.6627C65.9833 38.0111 66.2863 38.3293 66.612 38.6626C66.6814 38.734 66.7018 38.8397 66.664 38.9318C66.6262 39.0239 66.5373 39.0848 66.4378 39.0868H53.9999C53.4494 39.0826 53.0041 38.6374 53 38.0869V5.99988C53.0041 5.44938 53.4494 5.00412 53.9999 5H74.967C75.066 5.0012 75.1638 5.02178 75.2549 5.0606C75.3479 5.09665 75.4328 5.15071 75.5048 5.21967L83.0797 12.7945C83.1486 12.8665 83.2027 12.9515 83.2387 13.0445C83.2776 13.1355 83.2982 13.2333 83.2993 13.3323V19.574C83.2994 19.6672 83.246 19.7522 83.162 19.7926C83.078 19.833 82.9782 19.8216 82.9055 19.7634C82.5797 19.521 82.2464 19.2937 81.898 19.0816C81.8286 19.0365 81.786 18.9599 81.7844 18.8771V14.3322C81.7804 14.2 81.6742 14.0938 81.542 14.0898H75.2094C74.6589 14.0857 74.2137 13.6404 74.2095 13.0899V6.75736C74.2056 6.62516 74.0993 6.51892 73.9671 6.51497H54.7574C54.6252 6.51892 54.5189 6.62516 54.515 6.75736V37.3294C54.5189 37.4616 54.6252 37.5678 54.7574 37.5718H65.5061ZM75.8867 7.96813C75.7971 7.99908 75.7337 8.07944 75.7246 8.17381V12.3324C75.7285 12.4646 75.8348 12.5708 75.967 12.5748H80.0953C80.1951 12.5772 80.2861 12.5181 80.3247 12.426C80.3632 12.3339 80.3413 12.2276 80.2695 12.1582L76.1412 8.02989C76.0757 7.9613 75.9763 7.93717 75.8867 7.96813Z" fill="#A9ABB6"/>
<path d="M58.3034 14.5599H68.9082C69.3265 14.5599 69.6656 14.2208 69.6656 13.8024C69.6656 13.3841 69.3265 13.0449 68.9082 13.0449H58.3034C57.885 13.0449 57.5459 13.3841 57.5459 13.8024C57.5459 14.2208 57.885 14.5599 58.3034 14.5599Z" fill="#A9ABB6"/>
<path d="M65.2495 19.9902H58.3034C57.885 19.9902 57.5459 20.3294 57.5459 20.7477C57.5459 21.1661 57.885 21.5052 58.3034 21.5052H65.2495C65.6679 21.5052 66.007 21.1661 66.007 20.7477C66.007 20.3294 65.6679 19.9902 65.2495 19.9902Z" fill="#A9ABB6"/>
<path d="M65.2495 23.467H58.3034C57.885 23.467 57.5459 23.8062 57.5459 24.2245C57.5459 24.6429 57.885 24.982 58.3034 24.982H65.2495C65.6679 24.982 66.007 24.6429 66.007 24.2245C66.007 23.8062 65.6679 23.467 65.2495 23.467Z" fill="#A9ABB6"/>
<path d="M75.7255 17.2792C75.7255 16.8609 75.3864 16.5217 74.968 16.5217H58.3034C57.885 16.5217 57.5459 16.8609 57.5459 17.2792C57.5459 17.6976 57.885 18.0367 58.3034 18.0367H74.968C75.3864 18.0367 75.7255 17.6976 75.7255 17.2792Z" fill="#A9ABB6"/>
<path d="M77.5038 25.6034C77.2621 25.3573 76.9701 25.1661 76.6478 25.0429C76.2129 24.8775 75.7494 24.8002 75.2844 24.8157C74.8297 24.8137 74.3766 24.8697 73.9361 24.9823C73.53 25.092 73.1384 25.2497 72.7695 25.4519L73.2392 26.7169C73.5305 26.5551 73.841 26.4304 74.1633 26.3458C74.4636 26.258 74.7746 26.2122 75.0874 26.2094C75.4247 26.1824 75.7591 26.2885 76.0191 26.5048C76.2294 26.6991 76.3431 26.9764 76.3297 27.2623C76.3346 27.4719 76.2822 27.6788 76.1782 27.8607C76.0736 28.0562 75.9437 28.237 75.7919 28.3986C75.6328 28.5728 75.4662 28.7394 75.292 28.9136C75.1111 29.0895 74.9415 29.2768 74.7844 29.4742C74.6256 29.672 74.4955 29.8913 74.3981 30.1256C74.2949 30.3832 74.2434 30.6586 74.2466 30.9361C74.2393 31.0319 74.2393 31.1282 74.2466 31.224C74.2466 31.33 74.2466 31.4285 74.2845 31.5194H75.7237C75.72 31.4639 75.72 31.4082 75.7237 31.3527V31.1937C75.7149 30.9303 75.775 30.6692 75.8979 30.4362C76.0153 30.2119 76.1604 30.0032 76.3297 29.815C76.5039 29.6181 76.6933 29.4287 76.8978 29.2394C77.0987 29.0538 77.2884 28.8565 77.4659 28.6485C77.6377 28.4402 77.7828 28.2112 77.8977 27.9668C78.0156 27.705 78.075 27.4207 78.0719 27.1336C78.0643 26.8769 78.0235 26.6223 77.9507 26.3761C77.8644 26.0871 77.7113 25.8224 77.5038 25.6034V25.6034Z" fill="#A9ABB6"/>
<path d="M75.0578 32.4966C74.7758 32.4966 74.5046 32.6051 74.3003 32.7996C74.0961 32.9986 73.9813 33.2719 73.9822 33.5571C73.9758 33.8433 74.0915 34.1187 74.3003 34.3146C74.5046 34.5091 74.7758 34.6176 75.0578 34.6176C75.3401 34.6191 75.6119 34.5104 75.8153 34.3146C76.0242 34.1187 76.1398 33.8433 76.1334 33.5571C76.1343 33.2719 76.0195 32.9986 75.8153 32.7996C75.6119 32.6037 75.3401 32.495 75.0578 32.4966V32.4966Z" fill="#A9ABB6"/>
<path fill-rule="evenodd" clip-rule="evenodd" d="M84.8146 35.2992L89.8216 39.738C90.2295 40.1326 90.463 40.6738 90.4701 41.2413C90.4772 41.8088 90.2574 42.3557 89.8594 42.7604L89.6322 42.9876C89.2322 43.3929 88.6866 43.621 88.1172 43.621C87.5478 43.621 87.0022 43.3929 86.6022 42.9876L81.6635 38.6094L81.2393 38.2306L80.4136 37.4731C79.8765 37.8212 79.3024 38.1083 78.7017 38.3291C77.655 38.7199 76.5467 38.92 75.4294 38.9199C73.2758 38.9213 71.1882 38.1773 69.521 36.8141C68.6163 36.0785 67.8582 35.1791 67.2864 34.1629C67.0071 33.681 66.7737 33.1737 66.5895 32.648C65.447 29.3836 66.2018 25.7551 68.5514 23.2173C68.8909 22.8411 69.2635 22.4964 69.6649 22.1871C73.0265 19.5532 77.7444 19.5278 81.1341 22.1254C84.5238 24.723 85.7262 29.2852 84.0571 33.2161C83.9196 33.5605 83.7576 33.8947 83.5723 34.216L84.0571 34.6477L84.8146 35.2992ZM69.0733 34.1629C69.9336 35.341 71.1028 36.2585 72.4517 36.8141C74.3581 37.6019 76.4991 37.6019 78.4055 36.8141C81.3604 35.6067 83.2933 32.7342 83.2989 29.5422C83.2999 28.3885 83.041 27.2493 82.5414 26.2093C81.8566 24.7652 80.7465 23.5652 79.36 22.7703C78.8397 22.4515 78.2827 22.1972 77.7011 22.0128C76.9655 21.7828 76.1993 21.6653 75.4286 21.6644C73.6495 21.6663 71.9249 22.2786 70.5429 23.399C70.1431 23.7105 69.7775 24.0634 69.4521 24.4519C67.5086 26.7237 67.0294 29.9044 68.2174 32.6479C68.4441 33.1838 68.7313 33.6921 69.0733 34.1629ZM83.5942 38.2684L82.8367 37.6169L82.6549 37.4578L81.6247 36.5413C82.0035 36.208 82.3532 35.8431 82.6701 35.4505L83.6018 36.2838L83.8745 36.5261L84.5789 37.1473L83.5942 38.2684ZM88.5192 41.882L88.7464 41.6548C88.8629 41.5479 88.9317 41.3987 88.9374 41.2407C88.9431 41.0827 88.8852 40.929 88.7767 40.814L85.7468 38.1552L84.7318 39.2687L87.6784 41.882C87.7894 41.9944 87.9408 42.0577 88.0988 42.0577C88.2568 42.0577 88.4082 41.9944 88.5192 41.882Z" fill="#A9ABB6"/>
</svg>

<svg xmlns="http://www.w3.org/2000/svg" width="144" height="80" fill="none"><path fill="#fff" d="M0 0h144v80H0z"/><rect width="80" height="8" x="32" y="51" fill="#E0E1E9" fill-opacity=".8" rx="4"/><rect width="48" height="8" x="48" y="67" fill="#E0E1E9" fill-opacity=".8" rx="4"/><path fill="#A9ABB6" fill-rule="evenodd" d="M65.506 37.572a.22.22 0 0 1 .182.09c.295.35.598.667.924 1a.25.25 0 0 1-.174.425H54a1.008 1.008 0 0 1-1-1V6c.004-.55.45-.996 1-1h20.967a.758.758 0 0 1 .288.06c.093.037.178.09.25.16l7.575 7.574a.757.757 0 0 1 .159.25c.039.091.06.19.06.288v6.242a.242.242 0 0 1-.394.19c-.325-.243-.659-.47-1.007-.682a.25.25 0 0 1-.114-.205v-4.545a.25.25 0 0 0-.242-.242h-6.333a1.008 1.008 0 0 1-1-1V6.757a.25.25 0 0 0-.242-.242h-19.21a.25.25 0 0 0-.242.242V37.33a.25.25 0 0 0 .242.243h10.75Zm10.38-29.604a.242.242 0 0 0-.161.206v4.158a.25.25 0 0 0 .242.243h4.128a.242.242 0 0 0 .174-.417L76.141 8.03a.242.242 0 0 0-.254-.062Z" clip-rule="evenodd"/><path fill="#A9ABB6" d="M58.303 14.56h10.605a.757.757 0 0 0 0-1.515H58.303a.758.758 0 0 0 0 1.515ZM65.25 19.99h-6.947a.758.758 0 0 0 0 1.515h6.947a.757.757 0 1 0 0-1.515ZM65.25 23.467h-6.947a.758.758 0 0 0 0 1.515h6.947a.757.757 0 1 0 0-1.515ZM75.725 17.28a.758.758 0 0 0-.757-.758H58.303a.758.758 0 0 0 0 1.515h16.665c.418 0 .757-.34.757-.758ZM77.504 25.603a2.402 2.402 0 0 0-.856-.56 3.507 3.507 0 0 0-1.364-.227 5.35 5.35 0 0 0-1.348.166c-.406.11-.798.268-1.167.47l.47 1.265a3.99 3.99 0 0 1 .924-.371c.3-.088.612-.134.924-.137.338-.027.672.08.932.296a.97.97 0 0 1 .31.757c.006.21-.047.417-.15.599a2.527 2.527 0 0 1-.387.538c-.16.174-.326.34-.5.515a5.95 5.95 0 0 0-.508.56 2.69 2.69 0 0 0-.386.652 2.114 2.114 0 0 0-.151.81 1.895 1.895 0 0 0 0 .288c0 .106 0 .204.037.295h1.44a1.253 1.253 0 0 1 0-.166v-.16a1.515 1.515 0 0 1 .174-.757 3.03 3.03 0 0 1 .432-.621c.174-.197.363-.386.568-.576.2-.185.39-.383.568-.59.172-.209.317-.438.432-.682.118-.262.177-.546.174-.833a2.983 2.983 0 0 0-.121-.758 1.924 1.924 0 0 0-.447-.773ZM75.058 32.497c-.282 0-.553.108-.758.303a1.053 1.053 0 0 0-.318.757c-.006.286.11.562.318.758a1.099 1.099 0 0 0 1.515 0c.21-.196.325-.472.318-.758.001-.285-.114-.558-.318-.757a1.083 1.083 0 0 0-.757-.303Z"/><path fill="#A9ABB6" fill-rule="evenodd" d="m84.815 35.3 5.007 4.438a2.129 2.129 0 0 1 .037 3.022l-.227.228a2.128 2.128 0 0 1-3.03 0l-4.939-4.379-.424-.378-.825-.758a8.608 8.608 0 0 1-1.712.856 9.353 9.353 0 0 1-11.416-4.166 8.872 8.872 0 0 1-.697-1.515 9.34 9.34 0 0 1 1.962-9.43c.34-.377.712-.722 1.114-1.03a9.362 9.362 0 0 1 14.392 11.028c-.137.344-.3.679-.485 1l.485.432.758.651Zm-15.742-1.137a7.917 7.917 0 0 0 3.379 2.651 7.795 7.795 0 0 0 5.954 0 7.87 7.87 0 0 0 4.893-7.272 7.682 7.682 0 0 0-.758-3.333 7.832 7.832 0 0 0-3.181-3.439 7.532 7.532 0 0 0-1.659-.757 7.645 7.645 0 0 0-2.272-.349 7.771 7.771 0 0 0-4.886 1.735c-.4.311-.766.664-1.09 1.053a7.825 7.825 0 0 0-1.236 8.196c.227.536.514 1.044.856 1.515Zm14.521 4.105-.757-.651-.182-.16-1.03-.916a8.893 8.893 0 0 0 1.045-1.09l.932.833.272.242.705.621-.985 1.121Zm4.925 3.614.227-.227a.591.591 0 0 0 .03-.841l-3.03-2.659-1.014 1.114 2.946 2.613a.59.59 0 0 0 .841 0Z" clip-rule="evenodd"/></svg>
